X:1
T:I’m Coming to Thee
T:I’m Coming to Thee
T:Edmund Simon Lorenz
T:Effie Stevens, 1908
T:Public Domain Courtesy of the Cyber Hymnal™
T:Public Domain Courtesy of the Cyber Hymnal™
C:Edmund Simon Lorenz
Z:Public Domain
Z:Courtesy of the Cyber Hymnal™
%%score ( 1 2 ) ( 3 4 )
L:1/8
Q:1/4=88
M:6/8
K:Eb
V:1 treble 
V:2 treble 
V:3 bass 
V:4 bass 
V:1
 (E/F/) | [EG][EG][EG] [EG][DF]E | [EG] [GB]2 [Ac][Ae][Ac] | [Ac][GB][EG] [EG][EF]E | %4
w: 1.~The *|words of the Mas- ter are|ring- ing, Ring- ing in|ears so long deaf to His|
w: 2.~The *|feet of the Mas- ter are|show- ing Show- ing the|path- way to dwell- ings a-|
w: 3.~The *|life of the Mas- ter is|plead- ing, Plead- ing, is|plead- ing with you and with|
 [DF]3- [DF]2 (E/F/) | [EG][EG][EG] [EG][DF]E | [EG] [GB]2 [Ac][Ae][Ac] | [Ac][GB][FA] [EG]2 [DF] | %8
w: call; * Their *|mes- sage of ten- der- ness|bring- ing, Bring- ing sal-|va- tion to one and|
w: bove; * Where *|we by our faith should be|go- ing, Go- ing, up-|held by Christ’s bound- less|
w: me; * It *|shows me how much I am|need- ing, Need- ing the|help that is found in|
 E3- E2 z ||"^Refrain" [EG] [GB]4 [Ac] | [GB][FA][=EG] [FA]2 z || [FA] [Ac]4 [Bd] | %12
w: all. *||||
w: love. *|Com- ing, I’m|com- ing to Thee!|Com- ing, I’m|
w: Thee. *||||
 [Ac][GB][^F=A] [GB]2 (E/=F/) | [EG][EG][EG] [FB][FB][FB] | %14
w: ||
w: com- ing to Thee! From *|sin to be free, on- ly|
w: ||
 [Ee]2 [Ge] !fermata![Ae]2[Q:1/4=75] [Ac] | [GB]<[EG][EA] [EG]<[B,E][B,F] | [B,E]3- [B,E]2 |] %17
w: |||
w: Thine to be, With|glad- ness I’m com- ing to|Thee. *|
w: |||
V:2
 E | x5 E | x6 | x5 E | x5 E | x5 E | x6 | x6 | E3- E2 x || x6 | x6 || x6 | x5 E | x6 | x6 | x6 | %16
 x5 |] %17
V:3
 (G,/A,/) | [E,B,][E,B,][E,B,] [E,B,][E,A,][E,G,] | [E,B,] [E,E]2 [A,E][A,C][A,E] | %3
w: ~ *|~ ~ ~ ~ ~ ~|~ ~ ~ ~ ~|
 [E,E][E,E][E,B,] [C,=A,][C,A,][C,A,] | [B,,B,]3- [B,,B,]2 (G,/A,/) | %5
w: ~ ~ ~ ~ ~ ~|~ * ~ *|
 [E,B,][E,B,][E,B,] [E,B,][E,A,][E,G,] | [E,B,] [E,E]2 [A,E][A,C][A,E] | %7
w: ~ ~ ~ ~ ~ ~|~ ~ ~ ~ ~|
 [E,E][E,E][A,,C] [B,,B,]2 [B,,A,] | [E,G,]3- [E,G,]2 z || [E,B,][E,E][E,E] [E,E][E,E][E,E] | %10
w: ~ ~ ~ ~ ~|~ *|Com- ing, dear Je- sus, I’m|
 [B,,D][B,,D][B,,^C] [B,,D]2 z || [B,,D][B,,D][B,,D] [B,,D][B,,D][B,,D] | %12
w: com- ing to Thee!|Com- ing, dear Je- sus, I’m|
 [E,E][E,E][E,C] [E,B,]2 (G,/A,/) | [E,B,][E,B,][E,B,] [D,B,][D,F,][D,F,] | %14
w: com- ing to Thee! * *||
 [C,G,]2 [B,,D] !fermata![A,,C]2 [A,,E] | [B,,E]<[B,,B,][B,,C] [B,,B,]<[B,,G,][B,,A,] | %16
w: ||
 [E,G,]3- [E,G,]2 |] %17
w: |
V:4
 E, | x6 | x6 | x6 | x5 E, | x6 | x6 | x6 | x6 || x6 | x6 || x6 | x5 E, | x6 | x6 | x6 | x5 |] %17

